X: 28218
T: Mrs. Dow's
R: reel
M: 4/4
K: Amajor
|:E3 C A,CEF|EC C/C/C ECB,C|E2 EC A,CEF|1 EcdB cBAF:|2 EcdB cBAA||
|:ceae cAAc|dBcA BFFF|ceae dcBA|1 GFED CA, A,2:|2 GBed cBAF||

